X:1
T:Barrett's Privateers
M:2/2
L:1/4
K:C
 C/2E/2| G G F/2F/2 E D/2D/2 D| C G/2G/2 G/2 G3/2 A A|
M:3/2
 G G D2 z G| c/2c/2 c B A GE/2-D/2| C C/2D/2 E/2E/2 E D/2C/2 C| E G AG/2-F/2 E D|\
 C3/2 z/2 E G
M:2/2
| A A G3/2 G/2| A B/2B/2 c/2G/2 G| AG/2-F/2 E D| C3/2 z/2 G B| c2 z/2 G/2G/2 B/2|\
 c G A G/2F/2| E/2E/2 G A3/2 A/2| A3/2 G/2 F E| ED/2-C/2
M:2/2
| C2 z||

